Icons/com_google_android_apps_plus.svg

<svg viewBox="0 0 48 48" xmlns:xlink="http://www.w3.org/1999/xlink">
 <defs>
  <linearGradient id="0">
   <stop stop-opacity="0"/>
   <stop offset="1"/>
  </linearGradient>
  <linearGradient xlink:href="#0" id="1" gradientUnits="userSpaceOnUse" gradientTransform="translate(4e-7,-48)" y1="47" x2="0" y2="1"/>
  <clipPath id="2">
   <g transform="translate(0,-1004.3622)">
    <rect rx="4" y="1005.36" x="1" height="46" width="46" fill="#1890d0"/>
   </g>
  </clipPath>
  <clipPath id="3">
   <g transform="translate(0,-1004.3622)">
    <rect rx="4" y="1005.36" x="1" height="46" width="46" fill="#1890d0"/>
   </g>
  </clipPath>
 </defs>
 <g>
  <g transform="translate(0,-1004.3622)">
   <path d="m 5,1006.3622 c -2.216,0 -4,1.784 -4,4 l 0,37.25 c 0,2.216 1.784,4 4,4 l 38,0 c 2.216,0 4,-1.784 4,-4 l 0,-37.25 c 0,-2.216 -1.784,-4 -4,-4 l -38,0 z m -4,41.5 0,0.5 c 0,2.216 1.784,4 4,4 l 38,0 c 2.216,0 4,-1.784 4,-4 l 0,-0.5 c 0,2.216 -1.784,4 -4,4 l -38,0 c -2.216,0 -4,-1.784 -4,-4 z" opacity="0.02"/>
   <path d="m 1,1047.6122 0,0.25 c 0,2.216 1.784,4 4,4 l 38,0 c 2.216,0 4,-1.784 4,-4 l 0,-0.25 c 0,2.216 -1.784,4 -4,4 l -38,0 c -2.216,0 -4,-1.784 -4,-4 z" opacity="0.05"/>
   <rect width="46" height="46" x="1" y="1005.61" rx="4" opacity="0.1"/>
  </g>
 </g>
 <g>
  <g transform="translate(0,-1004.3622)">
   <rect rx="4" y="1005.36" x="1" height="46" width="46" fill="#db5441"/>
  </g>
 </g>
 <g>
  <rect transform="scale(1,-1)" width="46" height="46" x="1" y="-46.998" rx="4" opacity="0.1" fill="url(#1)"/>
 </g>
 <g>
  <g clip-path="url(#2)">
   <g opacity="0.1">
    <g>
     <path d="M 21.035156 13.132812 C 21.226562 13.28125 21.453125 13.480469 21.710938 13.730469 C 21.96875 13.960938 22.21875 14.257812 22.453125 14.613281 C 22.691406 14.949219 22.894531 15.347656 23.066406 15.808594 C 23.238281 16.273438 23.324219 16.796875 23.324219 17.386719 C 23.324219 17.972656 23.25 18.488281 23.097656 18.929688 C 22.949219 19.371094 22.742188 19.769531 22.484375 20.125 C 22.226562 20.460938 21.9375 20.777344 21.613281 21.070312 C 21.292969 21.34375 20.957031 21.605469 20.613281 21.859375 C 20.398438 22.066406 20.195312 22.289062 20 22.519531 C 19.808594 22.75 19.710938 23.042969 19.710938 23.402344 C 19.710938 23.757812 19.808594 24.042969 20 24.25 C 20.195312 24.441406 20.378906 24.609375 20.550781 24.753906 L 21.710938 25.636719 C 22.054688 25.929688 22.390625 26.226562 22.710938 26.519531 C 23.054688 26.8125 23.347656 27.128906 23.582031 27.464844 C 23.839844 27.800781 24.046875 28.179688 24.195312 28.597656 C 24.347656 29.019531 24.421875 29.5 24.421875 30.046875 C 24.421875 30.78125 24.238281 31.507812 23.875 32.21875 C 23.507812 32.933594 22.96875 33.5625 22.261719 34.109375 C 21.550781 34.675781 20.65625 35.128906 19.582031 35.464844 C 18.527344 35.820312 17.3125 36 15.9375 36 C 14.773438 36 13.753906 35.875 12.871094 35.621094 C 12.011719 35.371094 11.289062 35.035156 10.710938 34.613281 C 10.128906 34.195312 9.699219 33.710938 9.417969 33.164062 C 9.140625 32.640625 9 32.082031 9 31.496094 C 9 30.929688 9.183594 30.277344 9.546875 29.542969 C 9.894531 28.828125 10.539062 28.199219 11.484375 27.652344 C 11.980469 27.359375 12.507812 27.117188 13.066406 26.929688 C 13.644531 26.761719 14.214844 26.625 14.773438 26.519531 C 15.335938 26.414062 15.859375 26.339844 16.355469 26.296875 C 16.851562 26.257812 17.28125 26.226562 17.644531 26.203125 C 17.410156 25.910156 17.183594 25.605469 16.96875 25.289062 C 16.773438 24.953125 16.679688 24.546875 16.679688 24.0625 C 16.679688 23.789062 16.710938 23.570312 16.773438 23.402344 C 16.839844 23.210938 16.914062 23.023438 17 22.835938 C 16.828125 22.855469 16.65625 22.875 16.484375 22.898438 C 16.3125 22.898438 16.140625 22.898438 15.96875 22.898438 C 15.109375 22.898438 14.34375 22.761719 13.679688 22.488281 C 13.011719 22.195312 12.453125 21.816406 12 21.355469 C 11.546875 20.890625 11.203125 20.367188 10.96875 19.777344 C 10.730469 19.167969 10.613281 18.5625 10.613281 17.953125 C 10.613281 17.21875 10.785156 16.480469 11.128906 15.746094 C 11.472656 14.992188 11.988281 14.320312 12.679688 13.730469 C 13.601562 12.996094 14.570312 12.523438 15.582031 12.3125 C 16.613281 12.105469 17.570312 12 18.453125 12 L 25.097656 12 L 23.035156 13.132812 L 21.035156 13.132812 M 17.484375 22.015625 C 17.894531 22.015625 18.292969 21.929688 18.679688 21.761719 C 19.085938 21.59375 19.421875 21.386719 19.679688 21.132812 C 20.042969 20.777344 20.269531 20.378906 20.355469 19.9375 C 20.441406 19.496094 20.484375 19.128906 20.484375 18.832031 C 20.484375 18.265625 20.398438 17.648438 20.226562 16.976562 C 20.054688 16.304688 19.796875 15.671875 19.453125 15.085938 C 19.109375 14.496094 18.679688 14.015625 18.164062 13.636719 C 17.667969 13.238281 17.085938 13.039062 16.421875 13.039062 C 15.992188 13.039062 15.570312 13.132812 15.164062 13.320312 C 14.753906 13.511719 14.421875 13.761719 14.160156 14.078125 C 13.882812 14.414062 13.6875 14.78125 13.582031 15.179688 C 13.496094 15.578125 13.453125 15.988281 13.453125 16.410156 C 13.453125 16.933594 13.527344 17.519531 13.679688 18.171875 C 13.851562 18.824219 14.097656 19.433594 14.421875 20 C 14.765625 20.566406 15.183594 21.050781 15.679688 21.449219 C 16.195312 21.824219 16.796875 22.015625 17.484375 22.015625 M 22.261719 31.273438 C 22.261719 30.875 22.183594 30.507812 22.035156 30.171875 C 21.90625 29.859375 21.699219 29.542969 21.421875 29.226562 C 21.140625 28.914062 20.777344 28.585938 20.324219 28.25 C 19.871094 27.914062 19.34375 27.539062 18.742188 27.117188 C 18.613281 27.097656 18.496094 27.085938 18.386719 27.085938 C 18.300781 27.085938 18.171875 27.085938 18 27.085938 C 17.9375 27.085938 17.785156 27.085938 17.550781 27.085938 C 17.3125 27.105469 17.035156 27.128906 16.710938 27.148438 C 16.386719 27.191406 16.042969 27.242188 15.679688 27.308594 C 15.3125 27.390625 14.957031 27.484375 14.613281 27.589844 C 14.441406 27.652344 14.195312 27.746094 13.871094 27.875 C 13.570312 28.019531 13.269531 28.21875 12.96875 28.472656 C 12.667969 28.722656 12.398438 29.039062 12.160156 29.417969 C 11.945312 29.796875 11.839844 30.265625 11.839844 30.835938 C 11.839844 31.96875 12.34375 32.890625 13.355469 33.605469 C 14.386719 34.320312 15.773438 34.675781 17.515625 34.675781 C 19.066406 34.675781 20.238281 34.351562 21.035156 33.699219 C 21.851562 33.070312 22.261719 32.261719 22.261719 31.273438 "/>
     <path d="M 34 16.722656 L 34 21.984375 L 39 21.984375 L 39 23.984375 L 34 23.984375 L 34 28.984375 L 32 28.984375 L 32 23.984375 L 27 23.984375 L 27 21.984375 L 32 21.984375 L 32 16.722656 "/>
    </g>
   </g>
  </g>
 </g>
 <g>
  <g clip-path="url(#3)">
   <g transform="translate(0,-1)">
    <g>
     <path d="M 21.035156 13.132812 C 21.226562 13.28125 21.453125 13.480469 21.710938 13.730469 C 21.96875 13.960938 22.21875 14.257812 22.453125 14.613281 C 22.691406 14.949219 22.894531 15.347656 23.066406 15.808594 C 23.238281 16.273438 23.324219 16.796875 23.324219 17.386719 C 23.324219 17.972656 23.25 18.488281 23.097656 18.929688 C 22.949219 19.371094 22.742188 19.769531 22.484375 20.125 C 22.226562 20.460938 21.9375 20.777344 21.613281 21.070312 C 21.292969 21.34375 20.957031 21.605469 20.613281 21.859375 C 20.398438 22.066406 20.195312 22.289062 20 22.519531 C 19.808594 22.75 19.710938 23.042969 19.710938 23.402344 C 19.710938 23.757812 19.808594 24.042969 20 24.25 C 20.195312 24.441406 20.378906 24.609375 20.550781 24.753906 L 21.710938 25.636719 C 22.054688 25.929688 22.390625 26.226562 22.710938 26.519531 C 23.054688 26.8125 23.347656 27.128906 23.582031 27.464844 C 23.839844 27.800781 24.046875 28.179688 24.195312 28.597656 C 24.347656 29.019531 24.421875 29.5 24.421875 30.046875 C 24.421875 30.78125 24.238281 31.507812 23.875 32.21875 C 23.507812 32.933594 22.96875 33.5625 22.261719 34.109375 C 21.550781 34.675781 20.65625 35.128906 19.582031 35.464844 C 18.527344 35.820312 17.3125 36 15.9375 36 C 14.773438 36 13.753906 35.875 12.871094 35.621094 C 12.011719 35.371094 11.289062 35.035156 10.710938 34.613281 C 10.128906 34.195312 9.699219 33.710938 9.417969 33.164062 C 9.140625 32.640625 9 32.082031 9 31.496094 C 9 30.929688 9.183594 30.277344 9.546875 29.542969 C 9.894531 28.828125 10.539062 28.199219 11.484375 27.652344 C 11.980469 27.359375 12.507812 27.117188 13.066406 26.929688 C 13.644531 26.761719 14.214844 26.625 14.773438 26.519531 C 15.335938 26.414062 15.859375 26.339844 16.355469 26.296875 C 16.851562 26.257812 17.28125 26.226562 17.644531 26.203125 C 17.410156 25.910156 17.183594 25.605469 16.96875 25.289062 C 16.773438 24.953125 16.679688 24.546875 16.679688 24.0625 C 16.679688 23.789062 16.710938 23.570312 16.773438 23.402344 C 16.839844 23.210938 16.914062 23.023438 17 22.835938 C 16.828125 22.855469 16.65625 22.875 16.484375 22.898438 C 16.3125 22.898438 16.140625 22.898438 15.96875 22.898438 C 15.109375 22.898438 14.34375 22.761719 13.679688 22.488281 C 13.011719 22.195312 12.453125 21.816406 12 21.355469 C 11.546875 20.890625 11.203125 20.367188 10.96875 19.777344 C 10.730469 19.167969 10.613281 18.5625 10.613281 17.953125 C 10.613281 17.21875 10.785156 16.480469 11.128906 15.746094 C 11.472656 14.992188 11.988281 14.320312 12.679688 13.730469 C 13.601562 12.996094 14.570312 12.523438 15.582031 12.3125 C 16.613281 12.105469 17.570312 12 18.453125 12 L 25.097656 12 L 23.035156 13.132812 L 21.035156 13.132812 M 17.484375 22.015625 C 17.894531 22.015625 18.292969 21.929688 18.679688 21.761719 C 19.085938 21.59375 19.421875 21.386719 19.679688 21.132812 C 20.042969 20.777344 20.269531 20.378906 20.355469 19.9375 C 20.441406 19.496094 20.484375 19.128906 20.484375 18.832031 C 20.484375 18.265625 20.398438 17.648438 20.226562 16.976562 C 20.054688 16.304688 19.796875 15.671875 19.453125 15.085938 C 19.109375 14.496094 18.679688 14.015625 18.164062 13.636719 C 17.667969 13.238281 17.085938 13.039062 16.421875 13.039062 C 15.992188 13.039062 15.570312 13.132812 15.164062 13.320312 C 14.753906 13.511719 14.421875 13.761719 14.160156 14.078125 C 13.882812 14.414062 13.6875 14.78125 13.582031 15.179688 C 13.496094 15.578125 13.453125 15.988281 13.453125 16.410156 C 13.453125 16.933594 13.527344 17.519531 13.679688 18.171875 C 13.851562 18.824219 14.097656 19.433594 14.421875 20 C 14.765625 20.566406 15.183594 21.050781 15.679688 21.449219 C 16.195312 21.824219 16.796875 22.015625 17.484375 22.015625 M 22.261719 31.273438 C 22.261719 30.875 22.183594 30.507812 22.035156 30.171875 C 21.90625 29.859375 21.699219 29.542969 21.421875 29.226562 C 21.140625 28.914062 20.777344 28.585938 20.324219 28.25 C 19.871094 27.914062 19.34375 27.539062 18.742188 27.117188 C 18.613281 27.097656 18.496094 27.085938 18.386719 27.085938 C 18.300781 27.085938 18.171875 27.085938 18 27.085938 C 17.9375 27.085938 17.785156 27.085938 17.550781 27.085938 C 17.3125 27.105469 17.035156 27.128906 16.710938 27.148438 C 16.386719 27.191406 16.042969 27.242188 15.679688 27.308594 C 15.3125 27.390625 14.957031 27.484375 14.613281 27.589844 C 14.441406 27.652344 14.195312 27.746094 13.871094 27.875 C 13.570312 28.019531 13.269531 28.21875 12.96875 28.472656 C 12.667969 28.722656 12.398438 29.039062 12.160156 29.417969 C 11.945312 29.796875 11.839844 30.265625 11.839844 30.835938 C 11.839844 31.96875 12.34375 32.890625 13.355469 33.605469 C 14.386719 34.320312 15.773438 34.675781 17.515625 34.675781 C 19.066406 34.675781 20.238281 34.351562 21.035156 33.699219 C 21.851562 33.070312 22.261719 32.261719 22.261719 31.273438 " fill="#f9f9f9"/>
     <path d="M 34 16.722656 L 34 21.984375 L 39 21.984375 L 39 23.984375 L 34 23.984375 L 34 28.984375 L 32 28.984375 L 32 23.984375 L 27 23.984375 L 27 21.984375 L 32 21.984375 L 32 16.722656 " fill="#f9f9f9"/>
    </g>
   </g>
  </g>
 </g>
 <g>
  <g transform="translate(0,-1004.3622)">
   <path d="m 1,1043.3622 0,4 c 0,2.216 1.784,4 4,4 l 38,0 c 2.216,0 4,-1.784 4,-4 l 0,-4 c 0,2.216 -1.784,4 -4,4 l -38,0 c -2.216,0 -4,-1.784 -4,-4 z" opacity="0.1"/>
  </g>
 </g>
</svg>

<svg viewBox="0 0 48 48"><defs><linearGradient id="linearGradient3764" x1="1" x2="47" gradientUnits="userSpaceOnUse" gradientTransform="translate(-48.000001,0.00221467)"><stop stop-color="#d84430" stop-opacity="1"/><stop offset="1" stop-color="#db5441" stop-opacity="1"/></linearGradient><clipPath id="clipPath-382290859"><g transform="translate(0,-1004.3622)"><rect rx="4" y="1005.36" x="1" height="46" width="46" fill="#1890d0"/></g></clipPath><clipPath id="clipPath-396342832"><g transform="translate(0,-1004.3622)"><rect rx="4" y="1005.36" x="1" height="46" width="46" fill="#1890d0"/></g></clipPath></defs><g><path d="m 1 43 l 0 0.25 c 0 2.216 1.784 4 4 4 l 38 0 c 2.216 0 4 -1.784 4 -4 l 0 -0.25 c 0 2.216 -1.784 4 -4 4 l -38 0 c -2.216 0 -4 -1.784 -4 -4 z m 0 0.5 l 0 0.5 c 0 2.216 1.784 4 4 4 l 38 0 c 2.216 0 4 -1.784 4 -4 l 0 -0.5 c 0 2.216 -1.784 4 -4 4 l -38 0 c -2.216 0 -4 -1.784 -4 -4 z" opacity="0.02"/><path d="m 1 43.25 l 0 0.25 c 0 2.216 1.784 4 4 4 l 38 0 c 2.216 0 4 -1.784 4 -4 l 0 -0.25 c 0 2.216 -1.784 4 -4 4 l -38 0 c -2.216 0 -4 -1.784 -4 -4 z" opacity="0.05"/><path d="m 1 43 l 0 0.25 c 0 2.216 1.784 4 4 4 l 38 0 c 2.216 0 4 -1.784 4 -4 l 0 -0.25 c 0 2.216 -1.784 4 -4 4 l -38 0 c -2.216 0 -4 -1.784 -4 -4 z" opacity="0.1"/></g><g><rect width="46" height="46" x="-47" y="1" rx="4" transform="matrix(0,-1,1,0,0,0)" fill="url(#linearGradient3764)" fill-opacity="1"/></g><g><g clip-path="url(#clipPath-382290859)"><g opacity="0.1"><!-- color: #db5441 --><g><path d="m 21.04 13.13 c 0.191 0.148 0.418 0.348 0.676 0.598 c 0.258 0.23 0.508 0.527 0.742 0.883 c 0.238 0.336 0.441 0.734 0.613 1.195 c 0.172 0.465 0.258 0.988 0.258 1.578 c 0 0.586 -0.074 1.102 -0.227 1.543 c -0.148 0.441 -0.355 0.84 -0.613 1.195 c -0.258 0.336 -0.547 0.652 -0.871 0.945 c -0.32 0.273 -0.656 0.535 -1 0.789 c -0.215 0.207 -0.418 0.43 -0.613 0.66 c -0.191 0.23 -0.289 0.523 -0.289 0.883 c 0 0.355 0.098 0.641 0.289 0.848 c 0.195 0.191 0.379 0.359 0.551 0.504 l 1.16 0.883 c 0.344 0.293 0.68 0.59 1 0.883 c 0.344 0.293 0.637 0.609 0.871 0.945 c 0.258 0.336 0.465 0.715 0.613 1.133 c 0.152 0.422 0.227 0.902 0.227 1.449 c 0 0.734 -0.184 1.461 -0.547 2.172 c -0.367 0.715 -0.906 1.344 -1.613 1.891 c -0.711 0.566 -1.605 1.02 -2.68 1.355 c -1.055 0.355 -2.27 0.535 -3.645 0.535 c -1.164 0 -2.184 -0.125 -3.066 -0.379 c -0.859 -0.25 -1.582 -0.586 -2.16 -1.01 c -0.582 -0.418 -1.012 -0.902 -1.293 -1.449 c -0.277 -0.523 -0.418 -1.082 -0.418 -1.668 c 0 -0.566 0.184 -1.219 0.547 -1.953 c 0.348 -0.715 0.992 -1.344 1.938 -1.891 c 0.496 -0.293 1.023 -0.535 1.582 -0.723 c 0.578 -0.168 1.148 -0.305 1.707 -0.41 c 0.563 -0.105 1.086 -0.18 1.582 -0.223 c 0.496 -0.039 0.926 -0.07 1.289 -0.094 c -0.234 -0.293 -0.461 -0.598 -0.676 -0.914 c -0.195 -0.336 -0.289 -0.742 -0.289 -1.227 c 0 -0.273 0.031 -0.492 0.094 -0.66 c 0.066 -0.191 0.141 -0.379 0.227 -0.566 c -0.172 0.02 -0.344 0.039 -0.516 0.063 c -0.172 0 -0.344 0 -0.516 0 c -0.859 0 -1.625 -0.137 -2.289 -0.41 c -0.668 -0.293 -1.227 -0.672 -1.68 -1.133 c -0.453 -0.465 -0.797 -0.988 -1.031 -1.578 c -0.238 -0.609 -0.355 -1.215 -0.355 -1.824 c 0 -0.734 0.172 -1.473 0.516 -2.207 c 0.344 -0.754 0.859 -1.426 1.551 -2.02 c 0.922 -0.734 1.891 -1.207 2.902 -1.418 c 1.031 -0.207 1.988 -0.313 2.871 -0.313 l 6.645 0 l -2.063 1.133 l -2 0 m -3.551 8.883 c 0.41 0 0.809 -0.086 1.195 -0.254 c 0.406 -0.168 0.742 -0.375 1 -0.629 c 0.363 -0.355 0.59 -0.754 0.676 -1.195 c 0.086 -0.441 0.129 -0.809 0.129 -1.105 c 0 -0.566 -0.086 -1.184 -0.258 -1.855 c -0.172 -0.672 -0.43 -1.305 -0.773 -1.891 c -0.344 -0.59 -0.773 -1.07 -1.289 -1.449 c -0.496 -0.398 -1.078 -0.598 -1.742 -0.598 c -0.43 0 -0.852 0.094 -1.258 0.281 c -0.41 0.191 -0.742 0.441 -1 0.758 c -0.277 0.336 -0.473 0.703 -0.578 1.102 c -0.086 0.398 -0.129 0.809 -0.129 1.23 c 0 0.523 0.074 1.109 0.227 1.762 c 0.172 0.652 0.418 1.262 0.742 1.828 c 0.344 0.566 0.762 1.051 1.258 1.449 c 0.516 0.375 1.117 0.566 1.805 0.566 m 4.777 9.258 c 0 -0.398 -0.078 -0.766 -0.227 -1.102 c -0.129 -0.313 -0.336 -0.629 -0.613 -0.945 c -0.281 -0.313 -0.645 -0.641 -1.098 -0.977 c -0.453 -0.336 -0.98 -0.711 -1.582 -1.133 c -0.129 -0.02 -0.246 -0.031 -0.355 -0.031 c -0.086 0 -0.215 0 -0.387 0 c -0.063 0 -0.215 0 -0.449 0 c -0.238 0.02 -0.516 0.043 -0.84 0.063 c -0.324 0.043 -0.668 0.094 -1.031 0.16 c -0.367 0.082 -0.723 0.176 -1.066 0.281 c -0.172 0.063 -0.418 0.156 -0.742 0.285 c -0.301 0.145 -0.602 0.344 -0.902 0.598 c -0.301 0.25 -0.57 0.566 -0.809 0.945 c -0.215 0.379 -0.32 0.848 -0.32 1.418 c 0 1.133 0.504 2.055 1.516 2.77 c 1.031 0.715 2.418 1.07 4.16 1.07 c 1.551 0 2.723 -0.324 3.52 -0.977 c 0.816 -0.629 1.227 -1.438 1.227 -2.426" fill="#000"/><path d="m 34 16.723 l 0 5.262 l 5 0 l 0 2 l -5 0 l 0 5 l -2 0 l 0 -5 l -5 0 l 0 -2 l 5 0 l 0 -5.262" fill="#000"/></g></g></g></g><g><g clip-path="url(#clipPath-396342832)"><g transform="translate(0,-1)"><!-- color: #db5441 --><g><path d="m 21.04 13.13 c 0.191 0.148 0.418 0.348 0.676 0.598 c 0.258 0.23 0.508 0.527 0.742 0.883 c 0.238 0.336 0.441 0.734 0.613 1.195 c 0.172 0.465 0.258 0.988 0.258 1.578 c 0 0.586 -0.074 1.102 -0.227 1.543 c -0.148 0.441 -0.355 0.84 -0.613 1.195 c -0.258 0.336 -0.547 0.652 -0.871 0.945 c -0.32 0.273 -0.656 0.535 -1 0.789 c -0.215 0.207 -0.418 0.43 -0.613 0.66 c -0.191 0.23 -0.289 0.523 -0.289 0.883 c 0 0.355 0.098 0.641 0.289 0.848 c 0.195 0.191 0.379 0.359 0.551 0.504 l 1.16 0.883 c 0.344 0.293 0.68 0.59 1 0.883 c 0.344 0.293 0.637 0.609 0.871 0.945 c 0.258 0.336 0.465 0.715 0.613 1.133 c 0.152 0.422 0.227 0.902 0.227 1.449 c 0 0.734 -0.184 1.461 -0.547 2.172 c -0.367 0.715 -0.906 1.344 -1.613 1.891 c -0.711 0.566 -1.605 1.02 -2.68 1.355 c -1.055 0.355 -2.27 0.535 -3.645 0.535 c -1.164 0 -2.184 -0.125 -3.066 -0.379 c -0.859 -0.25 -1.582 -0.586 -2.16 -1.01 c -0.582 -0.418 -1.012 -0.902 -1.293 -1.449 c -0.277 -0.523 -0.418 -1.082 -0.418 -1.668 c 0 -0.566 0.184 -1.219 0.547 -1.953 c 0.348 -0.715 0.992 -1.344 1.938 -1.891 c 0.496 -0.293 1.023 -0.535 1.582 -0.723 c 0.578 -0.168 1.148 -0.305 1.707 -0.41 c 0.563 -0.105 1.086 -0.18 1.582 -0.223 c 0.496 -0.039 0.926 -0.07 1.289 -0.094 c -0.234 -0.293 -0.461 -0.598 -0.676 -0.914 c -0.195 -0.336 -0.289 -0.742 -0.289 -1.227 c 0 -0.273 0.031 -0.492 0.094 -0.66 c 0.066 -0.191 0.141 -0.379 0.227 -0.566 c -0.172 0.02 -0.344 0.039 -0.516 0.063 c -0.172 0 -0.344 0 -0.516 0 c -0.859 0 -1.625 -0.137 -2.289 -0.41 c -0.668 -0.293 -1.227 -0.672 -1.68 -1.133 c -0.453 -0.465 -0.797 -0.988 -1.031 -1.578 c -0.238 -0.609 -0.355 -1.215 -0.355 -1.824 c 0 -0.734 0.172 -1.473 0.516 -2.207 c 0.344 -0.754 0.859 -1.426 1.551 -2.02 c 0.922 -0.734 1.891 -1.207 2.902 -1.418 c 1.031 -0.207 1.988 -0.313 2.871 -0.313 l 6.645 0 l -2.063 1.133 l -2 0 m -3.551 8.883 c 0.41 0 0.809 -0.086 1.195 -0.254 c 0.406 -0.168 0.742 -0.375 1 -0.629 c 0.363 -0.355 0.59 -0.754 0.676 -1.195 c 0.086 -0.441 0.129 -0.809 0.129 -1.105 c 0 -0.566 -0.086 -1.184 -0.258 -1.855 c -0.172 -0.672 -0.43 -1.305 -0.773 -1.891 c -0.344 -0.59 -0.773 -1.07 -1.289 -1.449 c -0.496 -0.398 -1.078 -0.598 -1.742 -0.598 c -0.43 0 -0.852 0.094 -1.258 0.281 c -0.41 0.191 -0.742 0.441 -1 0.758 c -0.277 0.336 -0.473 0.703 -0.578 1.102 c -0.086 0.398 -0.129 0.809 -0.129 1.23 c 0 0.523 0.074 1.109 0.227 1.762 c 0.172 0.652 0.418 1.262 0.742 1.828 c 0.344 0.566 0.762 1.051 1.258 1.449 c 0.516 0.375 1.117 0.566 1.805 0.566 m 4.777 9.258 c 0 -0.398 -0.078 -0.766 -0.227 -1.102 c -0.129 -0.313 -0.336 -0.629 -0.613 -0.945 c -0.281 -0.313 -0.645 -0.641 -1.098 -0.977 c -0.453 -0.336 -0.98 -0.711 -1.582 -1.133 c -0.129 -0.02 -0.246 -0.031 -0.355 -0.031 c -0.086 0 -0.215 0 -0.387 0 c -0.063 0 -0.215 0 -0.449 0 c -0.238 0.02 -0.516 0.043 -0.84 0.063 c -0.324 0.043 -0.668 0.094 -1.031 0.16 c -0.367 0.082 -0.723 0.176 -1.066 0.281 c -0.172 0.063 -0.418 0.156 -0.742 0.285 c -0.301 0.145 -0.602 0.344 -0.902 0.598 c -0.301 0.25 -0.57 0.566 -0.809 0.945 c -0.215 0.379 -0.32 0.848 -0.32 1.418 c 0 1.133 0.504 2.055 1.516 2.77 c 1.031 0.715 2.418 1.07 4.16 1.07 c 1.551 0 2.723 -0.324 3.52 -0.977 c 0.816 -0.629 1.227 -1.438 1.227 -2.426" fill="#f9f9f9"/><path d="m 34 16.723 l 0 5.262 l 5 0 l 0 2 l -5 0 l 0 5 l -2 0 l 0 -5 l -5 0 l 0 -2 l 5 0 l 0 -5.262" fill="#f9f9f9"/></g></g></g></g><g><g transform="translate(0,-1004.3622)"><path d="m 1 1043.36 0 4 c 0 2.216 1.784 4 4 4 l 38 0 c 2.216 0 4 -1.784 4 -4 l 0 -4 c 0 2.216 -1.784 4 -4 4 l -38 0 c -2.216 0 -4 -1.784 -4 -4 z" opacity="0.1"/></g></g></svg>
